src/assets/icons/typescript.svg

<svg width="51" height="50" viewBox="0 0 51 50" fill="none" xmlns="http://www.w3.org/2000/svg">
<g clip-path="url(#clip0_1479_21433)">
<path d="M43.3789 0H8.37891C4.23677 0 0.878906 3.35786 0.878906 7.5V42.5C0.878906 46.6421 4.23677 50 8.37891 50H43.3789C47.521 50 50.8789 46.6421 50.8789 42.5V7.5C50.8789 3.35786 47.521 0 43.3789 0Z" fill="#3178C6"/>
<path d="M23.6328 27.7344H29.8828V23.7305H12.4023V27.7344H18.6523V45.6055H23.6328V27.7344ZM31.8359 44.6289C32.627 45.0391 33.5938 45.3418 34.668 45.5469C35.7422 45.752 36.9141 45.8496 38.0859 45.8496C39.2578 45.8496 40.332 45.7422 41.4062 45.5176C42.4805 45.293 43.3594 44.9219 44.1406 44.4434C44.9316 43.9258 45.6055 43.2715 45.9961 42.3926C46.3867 41.5137 46.6895 40.5371 46.6895 39.2676C46.6895 38.3789 46.5527 37.6074 46.2891 36.9238C46.0254 36.2402 45.6445 35.6543 45.1172 35.166C44.6191 34.6484 44.043 34.1895 43.3594 33.7988C42.6758 33.4082 41.8945 32.998 41.0156 32.627C40.3711 32.3633 39.8438 32.1094 39.2578 31.8555C38.75 31.6016 38.3105 31.3477 37.9883 31.0937C37.627 30.8301 37.3535 30.5566 37.1582 30.2734C36.9629 29.9805 36.8652 29.6582 36.8652 29.2969C36.8652 28.9648 36.9522 28.6621 37.1289 28.3887C37.3057 28.1152 37.5488 27.8906 37.8613 27.6953C38.1738 27.5 38.5645 27.3535 39.0332 27.2461C39.4922 27.1387 40 27.0898 40.5957 27.0898C41.0059 27.0898 41.4355 27.1201 41.8652 27.1816C42.3145 27.2432 42.7734 27.3379 43.2324 27.4648C43.6914 27.5918 44.1406 27.748 44.5996 27.9434C45.0293 28.1387 45.4297 28.3633 45.7715 28.6172V24.0273C45.0293 23.7441 44.209 23.5293 43.3301 23.3926C42.4512 23.2559 41.4746 23.1875 40.3027 23.1875C39.1309 23.1875 38.0566 23.3145 36.9824 23.5586C35.9082 23.8027 35.0293 24.1934 34.248 24.7305C33.457 25.2578 32.8809 25.9023 32.3926 26.7812C31.9336 27.6016 31.709 28.5391 31.709 29.7109C31.709 31.1758 32.1289 32.4453 32.9785 33.4219C33.8184 34.4961 35.127 35.2773 36.7871 36.0586C37.4609 36.332 38.0566 36.6055 38.6426 36.8691C39.2285 37.1328 39.7168 37.4062 40.1074 37.6895C40.5273 37.9727 40.8594 38.2852 41.084 38.6172C41.3281 38.9492 41.4551 39.3398 41.4551 39.7891C41.4551 40.1016 41.3789 40.3945 41.2305 40.668C41.082 40.9414 40.8496 41.1758 40.5371 41.3711C40.2246 41.5664 39.8438 41.7227 39.3652 41.8398C38.9062 41.9473 38.3887 42.0059 37.7051 42.0059C36.6309 42.0059 35.5566 41.8203 34.5801 41.4492C33.5059 41.0781 32.5293 40.5215 31.8359 39.9414V44.6289Z" fill="white"/>
</g>
<defs>
<clipPath id="clip0_1479_21433">
<rect width="50" height="50" fill="white" transform="translate(0.878906)"/>
</clipPath>
</defs>
</svg>

<svg xmlns="http://www.w3.org/2000/svg" width="51" height="50" fill="none"><g clip-path="url(#a)"><path fill="#3178C6" d="M43.379 0h-35a7.5 7.5 0 0 0-7.5 7.5v35a7.5 7.5 0 0 0 7.5 7.5h35a7.5 7.5 0 0 0 7.5-7.5v-35a7.5 7.5 0 0 0-7.5-7.5Z"/><path fill="#fff" d="M23.633 27.734h6.25V23.73h-17.48v4.004h6.25v17.871h4.98v-17.87Zm8.203 16.895c.791.41 1.758.713 2.832.918 1.074.205 2.246.303 3.418.303 1.172 0 2.246-.108 3.32-.332a8.423 8.423 0 0 0 2.735-1.075c.79-.517 1.465-1.171 1.855-2.05.39-.88.694-1.856.694-3.125 0-.89-.137-1.66-.4-2.344a4.602 4.602 0 0 0-1.173-1.758 7.759 7.759 0 0 0-1.758-1.367c-.683-.39-1.465-.801-2.343-1.172-.645-.264-1.172-.518-1.758-.772-.508-.253-.948-.507-1.27-.761a3.485 3.485 0 0 1-.83-.82 1.715 1.715 0 0 1-.293-.977c0-.332.087-.635.264-.908.177-.274.42-.498.732-.694.313-.195.704-.341 1.172-.449a6.82 6.82 0 0 1 1.563-.156c.41 0 .84.03 1.27.092a10.845 10.845 0 0 1 2.734.762c.43.195.83.42 1.172.673v-4.59a12.063 12.063 0 0 0-2.442-.634c-.879-.137-1.855-.206-3.027-.206-1.172 0-2.246.127-3.32.372-1.075.244-1.954.634-2.735 1.171-.791.528-1.367 1.172-1.855 2.051-.46.82-.684 1.758-.684 2.93 0 1.465.42 2.734 1.27 3.71.84 1.075 2.148 1.856 3.808 2.638.674.273 1.27.547 1.856.81a8.327 8.327 0 0 1 1.464.82c.42.284.752.596.977.928.244.332.371.723.371 1.172 0 .313-.076.605-.224.879-.149.273-.381.508-.694.703a3.958 3.958 0 0 1-1.172.469c-.459.107-.976.166-1.66.166a8.852 8.852 0 0 1-3.125-.557c-1.074-.37-2.05-.927-2.744-1.508v4.688Z"/></g><defs><clipPath id="a"><path fill="#fff" d="M.879 0h50v50h-50z"/></clipPath></defs></svg>
